!!!COM: Palestrina, Giovanni Perluigi da
!!!OPR: Petra sancta
!!!OTL: Benedictus
**kern	**kern	**kern	**kern
*Itenor	*Itenor	*Icalto	*Icant
!Tenor 2	!Tenor 1	!Altus	!Cantus
*clefGv2	*clefGv2	*clefG2	*clefG2
*k[]	*k[]	*k[]	*k[]
*A:aeo	*A:aeo	*A:aeo	*A:aeo
*M4/2	*M4/2	*M4/2	*M4/2
=1	=1	=1	=1
1e	0r	0r	0r
2e	.	.	.
2e	.	.	.
=2	=2	=2	=2
2d	0r	1r	0r
2e	.	.	.
2.f	.	1a	.
8e	.	.	.
8d	.	.	.
=3	=3	=3	=3
2c	0r	2a	1ee
2A	.	2a	.
1c	.	2g	2ee
.	.	2a	2ee
=4	=4	=4	=4
1G	0r	1.b-	2dd
.	.	.	2ee
[1d	.	.	[1ff
.	.	4a	.
.	.	4g	.
=5	=5	=5	=5
2d]	1r	2f	2ff]
4c	.	2g	4ee
4B	.	.	4dd
[1A	1e	2a	2cc
.	.	[2cc	2a
=6	=6	=6	=6
1A]	2e	4cc]	1cc
.	.	4b	.
.	2e	1a	.
1r	2d	.	1b
.	2e	2g#	.
=7	=7	=7	=7
0r	1.f	1.a	2a
.	.	.	4f
.	.	.	4g
.	.	.	4a
.	.	.	4b
.	4e	4g	4cc
.	4d	4f	4dd
=8	=8	=8	=8
1e	2.c	1g	2ee
.	.	.	2.cc
.	4B	.	.
2e	4A	1c	.
.	4G	.	4b
2e	2A	.	[2a
=9	=9	=9	=9
2d	2B	1r	2a]
2e	2c	.	2g
[1f	1F	2r	2.a
.	.	4f	.
.	.	4g	4b
=10	=10	=10	=10
2f]	0r	4a	4cc
.	.	4b	4dd
4e	.	1cc	1ee
4d	.	.	.
2c	.	.	.
2d	.	4b	4dd
.	.	4a	4cc
=11	=11	=11	=11
0e	0r	2g#	2b
.	.	1a	2cc
.	.	.	1b
.	.	2g#	.
=12	=12	=12	=12
1f	2r	1a	1a
.	2d	.	.
2f	2d	2r	1r
2f	2d	2a	.
=13	=13	=13	=13
2e	2c	2a	2r
2c	2A	2a	2ee
2.e	1c	2g	2ee
.	.	2a	2ee
4f	.	.	.
=14	=14	=14	=14
1g	1G	1.b-	2dd
.	.	.	2ee
1f	[1d	.	[1ff
.	.	4a	.
.	.	4g	.
=15	=15	=15	=15
1.a	2d]	4f	2ff]
.	.	4g	.
.	4c	4a	4ee
.	4B	4b	4dd
.	2A	2cc	4ee
.	.	.	4cc
4g	2B	2b	2dd
4f	.	.	.
=16	=16	=16	=16
2e	2c	1a	2ee
2d	2.d	.	2.ff
2f	.	[1d	.
.	4c	.	4ee
[2g	4B-	.	4dd
.	4A	.	4cc
=17	=17	=17	=17
4g]	2G	1d]	4b-
4f	.	.	4cc
4e	2B-	.	1dd
4d	.	.	.
1e	1A	1a	.
.	.	.	2cc#
=18	=18	=18	=18
1d	1r	2r	4dd
.	.	.	4ee
.	.	2f	4ff
.	.	.	4dd
1r	2r	2g	1ee
.	2c	2a	.
=19	=19	=19	=19
0r	2d	1.b-	0r
.	2e	.	.
.	1f	.	.
.	.	2a	.
=20	=20	=20	=20
0r	2e	2g	0r
.	2d	4f	.
.	.	4g	.
.	4c	4a	.
.	4d	4b	.
.	4e	4cc	.
.	4f	4a	.
=21	=21	=21	=21
0r	4g	2b-	2r
.	4e	.	.
.	1f	2.a	2cc
.	.	.	2dd
.	.	4b	.
.	2e	[2cc	2ee
=22	=22	=22	=22
1f	1d	2cc]	1ff
.	.	2b	.
2g	1c	1cc	1ee
2a	.	.	.
=23	=23	=23	=23
2b-	0r	2r	2dd
1a	.	2c	2cc
.	.	2d	1b-
2g	.	2e	.
=24	=24	=24	=24
1a	1F	1f	4a
.	.	.	4b
.	.	.	4cc
.	.	.	4a
2g	2G	2r	2b-
[2f	2A	2c	[2a
=25	=25	=25	=25
4f]	1B-	2.d	2a]
4e	.	.	.
2d	.	.	2g
.	.	4e	.
2c	4A	1f	1a
.	4G	.	.
2A	4F	.	.
.	4G	.	.
=26	=26	=26	=26
1c	4A	2.e	1r
.	4B	.	.
.	4c	.	.
.	4d	4f	.
1r	4e	2g	1cc
.	4c	.	.
.	[2f	[2a	.
=27	=27	=27	=27
1r	2f]	2a]	2dd
.	2.e	2g	2ee
2r	.	1a	1ff
.	4d	.	.
2F	[2d	.	.
=28	=28	=28	=28
2G	2d]	2r	1ee
2A	2c#	2a	.
1B-	1d	2f	2.dd
.	.	2g	.
.	.	.	4dd
=29	=29	=29	=29
1A	2r	1a	2cc
.	2c	.	2a
1G	2d	1r	2b
.	2e	.	2g
=30	=30	=30	=30
4F	1f	1.cc	4a
4G	.	.	4b
4A	.	.	4cc
4B	.	.	4dd
1c	1e	.	4ee
.	.	.	4ff
.	.	2g	[2gg
=31	=31	=31	=31
0r	2.d	4b-	2gg]
.	.	4a	.
.	.	4a	1ff
.	4d	8g	.
.	.	8f	.
.	1c	1g	.
.	.	.	2ee
=32	=32	=32	=32
0r	1d	2r	1ff
.	.	2f	.
.	1c	2g	2r
.	.	2a	2cc
=33	=33	=33	=33
2r	0r	2b-	2dd
2c	.	4a	2ee
.	.	4g	.
2d	.	2f	2ff
2e	.	2g	4ee
.	.	.	4dd
=34	=34	=34	=34
2.f	1F	1a	2cc
.	.	.	2a
4e	.	.	.
2d	2G	2g	2b-
2c	2A	[2f	4a
.	.	.	4g
=35	=35	=35	=35
2d	1B-	2f]	2f
2d	.	4e	2g
.	.	4d	.
2e	[1A	2c	4a
.	.	.	4b
4A	.	2c	4cc
4B	.	.	4dd
=36	=36	=36	=36
4c	1A]	2.cc	4ee
4d	.	.	4ff
4e	.	.	2.ee
4f	.	4cc	.
2.g	1G	1b-	.
.	.	.	4dd
.	.	.	[2dd
4f	.	.	.
=37	=37	=37	=37
1.e	0A	1.a	2dd]
.	.	.	4cc#
.	.	.	4b
.	.	.	2cc#
2e	.	2a	2cc#
=38	=38	=38	=38
0f#	0d	0a	0dd
*-	*-	*-	*-
!! Hosanna
**kern	**kern	**kern	**kern	**kern
*Ibass	*Itenor	*Itenor	*Icalto	*Icant
!Bassus	!Tenor 2	!Tenor 1	!Altus	!Cantus
*clefF4	*clefGv2	*clefGv2	*clefG2	*clefG2
*k[]	*k[]	*k[]	*k[]	*k[]
*A:aeo	*A:aeo	*A:aeo	*A:aeo	*A:aeo
*M4/2	*M4/2	*M4/2	*M4/2	*M4/2
=39	=39	=39	=39	=39
1A	1r	1e	0r	0r
2d	1a	2f	.	.
2c#	.	2e	.	.
=40	=40	=40	=40	=40
1d	2a	1f	0r	0r
.	2a	.	.	.
2A	1a	2e	.	.
[2c	.	[2e	.	.
=41	=41	=41	=41	=41
2c]	1g	2e]	0r	0r
2B	.	2d	.	.
2A	2f	2c	.	.
2G	[2e	2B	.	.
=42	=42	=42	=42	=42
1F	2e]	2A	1a	1r
.	2d	2a	.	.
1E	1e	2a	2cc	1ee
.	.	2g#	2b	.
=43	=43	=43	=43	=43
0r	0r	1a	1cc	2ff
.	.	.	.	2ee
.	.	2d	2a	1ff
.	.	[2a	[2cc	.
=44	=44	=44	=44	=44
0r	0r	2a]	2cc]	1ee
.	.	2g	2b	.
.	.	2f	2a	2dd
.	.	2e	[2g	[2cc
=45	=45	=45	=45	=45
0r	2r	1d	4g]	2cc]
.	.	.	4f	.
.	2f	.	1f	2b
.	2a	1c	.	[1cc
.	2g	.	2e	.
=46	=46	=46	=46	=46
2r	2.a	2r	2f	1cc]
2A	.	2c	2e	.
.	4a	.	.	.
2c	2g	2e	2r	1r
2B	2G	2d	2g	.
=47	=47	=47	=47	=47
1c	0r	1e	2a	0r
.	.	.	2g	.
2G	.	[1d	2.b-	.
[2B-	.	.	.	.
.	.	.	4a	.
=48	=48	=48	=48	=48
2B-]	0r	2d]	2g	0r
2A	.	2c	2f	.
2G	.	2B-	4e	.
.	.	.	4d	.
2F	.	2A	[2d	.
=49	=49	=49	=49	=49
1E	1g	2G	2d]	1r
.	.	2g	2c#	.
1D	2b-	2g	1d	2r
.	2a	2f#	.	2dd
=50	=50	=50	=50	=50
0r	1b-	1g	0r	2dd
.	.	.	.	2ee
.	[1a	2d	.	2.ff
.	.	[2f	.	.
.	.	.	.	4ee
=51	=51	=51	=51	=51
0r	2a]	2f]	1r	2dd
.	2g	2e	.	2cc
.	2f	2d	2r	2b-
.	2e	2c	2A	[2a
=52	=52	=52	=52	=52
1r	1d	1B-	1d	2a]
.	.	.	.	2g
2r	1e	2A	2.c	1a
2A	.	2A	.	.
.	.	.	4d	.
=53	=53	=53	=53	=53
2A	2r	2c	1e	0r
2G#	2e	2B	.	.
1A	2f	1c	1r	.
.	2e	.	.	.
=54	=54	=54	=54	=54
2D	2f	2d	1a	0r
1A	4e	4c	.	.
.	4d	4d	.	.
.	2c	4e	2cc	.
.	.	4f	.	.
2G	[2d	2g	2b	.
=55	=55	=55	=55	=55
2F	4d]	2a	1cc	2r
.	4c	.	.	.
2E	1c	2g	.	2ee
1D	.	2a	1f	[1ff
.	2B	2f	.	.
=56	=56	=56	=56	=56
1C	1c	1r	2a	2ff]
.	.	.	2g	2ee
1r	1r	1d	[1a	2.ff
.	.	.	.	4ee
=57	=57	=57	=57	=57
0r	1r	2f	2a]	2dd
.	.	2e	2g	2cc
.	2r	2d	2f	2b
.	2a	2c	2e	2a
=58	=58	=58	=58	=58
0r	2a	1B	2r	1dd
.	2g#	.	2d	.
.	[1a	[1A	2d	2ff
.	.	.	2c#	2ee
=59	=59	=59	=59	=59
1D	2a]	1A]	4d	2.ff
.	.	.	4e	.
.	2d	.	4f	.
.	.	.	4g	4ee
2D	2f	1r	2a	2dd
2E	2e	.	[2g	2cc
=60	=60	=60	=60	=60
2G	2d	1r	2g]	2b
2A	2c	.	2f	1a
1E	1B	2r	1e	.
.	.	2e	.	2g#
=61	=61	=61	=61	=61
1A	[0A	2f	2r	[0a
.	.	2e	2c	.
2.F	.	[1f	2d	.
.	.	.	2c	.
4E	.	.	.	.
=62	=62	=62	=62	=62
2D	1A_	2f]	2d	1a_
2C#	.	2e	2e	.
1D	1A_	1d	1f	1a_
=63	=63	=63	=63	=63
0A	0A]	0c#	0e	0a]
==	==	==	==	==
*-	*-	*-	*-	*-
!!!CDT: 1525/^1526/-1594/2/2
!!!OCY: Italia
!!!AGN: Mass (Parody)
!!!AST: renaissance, vocal
!!!ASW: Madrigal 1561 (Palestrina)
!!!PWK: Masses, Book 10
!!!RNB: Cadence finals: D
!!!YOR: Le Opere Complete, v. 27, p. 52
!!!YOO: Rome, Italy: Fratelli Scalera
!!!END: 1992//
!!!EED: John Miller
!!!YEC: Copyright 2000, John Miller
!!!YEN: United States of America
!!!YEM: Rights to all derivative electronic formats reserved.
!!!YEM: Refer to licensing agreement for further details.
!!!YEM: This file must be accompanied by the licensing agreement.
!!!YEM: A copy of the licensing agreement may be found at http://www.music-cog.ohio-state.edu/HumdrumDatabases/Palestrina/license.txt
!!!EMD: converted to Humdrum by Bret Aarden
